projects/vfh1/img/icons/fh.svg

<svg width="17" height="30" viewBox="0 0 17 30" fill="none" xmlns="http://www.w3.org/2000/svg">
<path d="M0 4.10476L3.9024 2.06245C6.04871 0.93935 8.02762 0.0110969 8.29962 9.7733e-05C8.572 -0.0109015 10.5915 0.907924 12.7874 2.04241L16.7803 4.10476L12.5852 4.21632C10.2781 4.27761 6.50217 4.27761 4.19508 4.21632L0 4.10476Z" fill="#42474D"/>
<path d="M0.19512 14.5147V9.80077V5.08683H8.59776H17L16.8904 9.70256L16.7803 14.3183L13.1706 14.4314L9.56087 14.5442V12.5655V10.5864H11.7072C13.3548 10.5864 13.8535 10.4497 13.8535 9.99718C13.8535 9.50379 13.0297 9.40794 8.78039 9.40794C4.53107 9.40794 3.70728 9.50379 3.70728 9.99718C3.70728 10.4423 4.18415 10.5864 5.65847 10.5864H7.60967V12.5506V14.5147H3.9024H0.19512Z" fill="#42474D"/>
<path d="M0.19512 24.7282V20.0143V15.3004H3.9024H7.60967V17.4609V19.6215H5.65847C4.18415 19.6215 3.70728 19.7656 3.70728 20.2107C3.70728 20.7041 4.53107 20.8 8.78039 20.8C13.0297 20.8 13.8535 20.7041 13.8535 20.2107C13.8535 19.7582 13.3548 19.6215 11.7072 19.6215H9.56087V17.4609V15.3004H13.2681H16.9754V20.0143V24.7282H8.58527H0.19512Z" fill="#42474D"/>
<path d="M4.45185 28.0516C2.28563 26.9799 0.431214 25.9704 0.331313 25.8085C0.231021 25.6467 3.85752 25.5139 8.39015 25.5139C12.9228 25.5139 16.5493 25.6467 16.449 25.8085C16.3491 25.9704 14.4947 26.9799 12.3285 28.0516L8.39015 30L4.45185 28.0516Z" fill="#42474D"/>
</svg>

<svg width="17" height="30" fill="none" xmlns="http://www.w3.org/2000/svg"><path d="M0 4.105l3.902-2.043C6.05.94 8.028.012 8.3 0c.272-.01 2.291.908 4.487 2.042l3.993 2.063-4.195.111a189.25 189.25 0 01-8.39 0L0 4.105zm.195 10.41V5.087H17l-.11 4.616-.11 4.615-3.61.113-3.61.113v-3.958h2.147c1.648 0 2.146-.136 2.146-.589 0-.493-.823-.59-5.073-.59-4.249 0-5.073.097-5.073.59 0 .445.477.59 1.951.59H7.61v3.928H.195zm0 10.213V15.3H7.61v4.322H5.658c-1.474 0-1.95.144-1.95.589 0 .493.823.589 5.072.589 4.25 0 5.074-.096 5.074-.59 0-.452-.5-.588-2.147-.588H9.561V15.3h7.414v9.427H.195zm4.257 3.324C2.286 26.98.432 25.97.332 25.808c-.101-.161 3.526-.294 8.058-.294 4.533 0 8.16.133 8.059.294-.1.162-1.954 1.172-4.12 2.244L8.39 30l-3.938-1.948z" fill="#42474D"/></svg>
